X:1
T:Title
%%score { ( 1 3 4 ) | ( 2 5 ) }
L:1/8
M:3/4
K:F
V:1 treble nm="Grand Piano"
V:3 treble 
V:4 treble 
V:2 bass 
V:5 bass 
V:1
 z2 z2[Q:1/4=92] A>B | A3 [EG] C>[EA] | [EG]4 [EG]>[FA] | [GB]3 [GB] A>_A | A4 A>B | c3 c B>A | %6
 [DB]4 [DF]>[DG] | z2 z G F>G | F4 E>F | [EG]3 [EB] [EA]>[EG] | [FA]4 [FA]>[FA] | =B3 B A>G | %12
 [Ec]4 A>B | c3 d c>=B |[M:2/4] B4[K:bass] |[M:1/4][K:treble] [CFc]>[Fd] | %16
[M:27/32] [Fc]/-<[Fc]/[FA]/4-[FA]/4-[FA]/4-[FA]/4-[FA]/-<[FA]/ z/4 z/4 z/4 z/4 z/4 z/4 z/4 z/4 z/4 z/4 z/ F3/4 | %17
[M:2/4] F4 |[M:1/4] (3:2:2c2 c |[M:3/4] z2 z d- d/4 z/4 z/ z | %20
 (5:4:5[EB]3/2- [EB]3- [EB]3/4[EG]3/4[FA]3/2 | z2 z [Bd]- [Bd]/4 z/4 z/ z | %22
 z2 z2 (3[C-A-c][CA][CAc] | [Af]3- [Af]/4 z/4 z/ (3:2:2[Fc]2 [F_e] | %24
[M:27/32] d/4-d/4-d/4-d/4-d/4-d/4-d/4-d/4-d/4-d/4-d/4-d/4-d/-<d/-[de-]/4e/4-e/4-e/4-e/-<e/-[F-d-e]/4[Fd]/ | %25
 [Fc]/-<[Fc]/[FA]/4-[FA]/4-[FA]/4-[FA]/4-[FA]/-<[FA]/ z/4 z/4 z/4 z/4 z/4 z/4 z/4 z/4 z/4 z/4 z/ F3/4 | %26
[M:2/4] F4 |] %27
V:2
 z2 z2 [F,CF]>[F,DF] | [F,CF]3 [C,B,] [C,B,]>[C,C] | [C,C]4 [C,C]>[F,C] | %3
 [E,C]3 [E,C][K:treble] [F,CF]>[F,=B,F] | [F,CF]4 [F,CF]>[G,CE] | %5
 [A,CF]3 [A,CF][K:bass] [G,CE]>[F,C_E] | [B,,B,]4 [B,,B,]>[B,,B,] | [C,F,]2 z C [C,A,C]>[C,A,C] | %8
 [F,A,C]4 [C,G,C]>[F,A,C] | [C,C]3 [C,C] [C,C]>[C,C] | [F,C]4 [D,D]>[D,D] | %11
 [G,DF]3 [G,DF] [G,CF]>[G,B,F] | [C,C]4 [F,CF]>[K:treble][G,CE] | [A,CF]3 [B,F] [A,CF]>[_A,DF] | %14
[M:2/4][K:bass] [CE]4 |[M:1/4] A,,>[B,,B,] | %16
[M:27/32] z/4 z/4 z/4 z/4 z/4 z/4 z/4 z/4 z/4 z/4 z/4 z/4 z/4 z/4 z/ B,/4-B,/4-B,/4-B,/4-B,/4-B,/4-B,/-<B,/ z/4 | %17
[M:2/4] [F,A,C]4 |[M:1/4] (3:2:2[F,A,F]2 [F,A,F] | %19
[M:3/4] [F,A,F]3- [F,A,F]/4 z/4 z/ (3:2:2[F,A,F]2 [F,CF] | %20
 (5:4:5[C,C]3/2- [C,C]3- [C,C]3/4[C,C]3/4[C,C]3/2 | [C,C]3- [C,C]/4 z/4 z/ (3:2:2[C,C]2 [C,C] | %22
 z2 z2 (3F,-[F,=B]F, | [F,C]3- [F,C]/4 z/4 z/ (3:2:2[F,A,]2 [E,A,] | %24
[M:27/32] z/4 z/4 z/4 z/4 z/4 z/4 z/4 z/4 z/4 z/4 z/4 z/4 z/4 z/4 z/ [=B,,_A,]/4-[B,,A,]/4-[B,,A,]/4-[B,,A,]/4-[B,,A,]/-<[B,,A,]/[B,,A,]3/4 | %25
 [C,A,]/-<[C,A,]/[C,C]/4-[C,C]/4-[C,C]/4-[C,C]/4-[C,C]/-<[C,C]/ z/4 z/4 z/4 z/4 z/4 z/4 z/4 z/4 z/4 z/4 z/ [F,A,C]3/4 | %26
[M:2/4] [F,A,C]4 |] %27
V:3
 x6 | x6 | x6 | x6 | x6 | x6 | x6 | [CA]4 z2 | x6 | x6 | x6 | x6 | x6 | x6 | %14
[M:2/4] z2[K:bass] C,2 |[M:1/4][K:treble] x2 | %16
[M:27/32] z/4 z/4 z/4 z/4 z/4 z/4 z/4 z/4 z/4 z/4 z/4 z/4 z/4 z/4 z/ [EG]/4-[EG]/4-[EG]/4-[EG]/4-[EG]/4-[EG]/4-[EG]/-<[EG]/ z/4 | %17
[M:2/4] x4 |[M:1/4] x2 |[M:3/4] c3- c/4 z/4 z/ (3:2:2c2 A | x6 | %21
 [GB]3- [GB]/4 z/4 z/ (3:2:2[Ac]2 [GB] | [CFA]4- [CFA]/4 z/4 z/ z | z2 z [Fc]- [Fc]/4 z/4 z/ z | %24
[M:27/32] F/4-F/4-F/4-F/4-F/4-F/4-F/4-F/4-F/4-F/4-F/4-F/4-F/-<F/F/4-F/4-F/4-F/4-F/-<F/ z/4 z/ | %25
 z/4 z/4 z/4 z/4 z/4 z/4 z/4 z/4 z/4 z/4 z/4 z/4 z/4 z/4 z/ [EG]/4-[EG]/4-[EG]/4-[EG]/4-[EG]/4-[EG]/4-[EG]/-<[EG]/ z/4 | %26
[M:2/4] x4 |] %27
V:4
 x6 | x6 | x6 | x6 | x6 | x6 | x6 | z2 B,2 z2 | x6 | x6 | x6 | x6 | x6 | x6 | %14
[M:2/4] x2[K:bass] x2 |[M:1/4][K:treble] x2 |[M:27/32] x27/4 |[M:2/4] x4 |[M:1/4] x2 |[M:3/4] x6 | %20
 x6 | x6 | x6 | x6 |[M:27/32] x27/4 | x27/4 |[M:2/4] x4 |] %27
V:5
 x6 | x6 | x6 | x4[K:treble] x2 | x6 | x4[K:bass] x2 | x6 | z2 C,2 z2 | x6 | x6 | x6 | x6 | %12
 x11/2[K:treble] x/ | x6 |[M:2/4][K:bass] G,2 z2 |[M:1/4] x2 | %16
[M:27/32] [C,A,]/-<[C,A,]/[C,C]/4-[C,C]/4-[C,C]/4-[C,C]/4-[C,C]/-<[C,C]/ z/4 z/4 z/ C,/4-C,/4-C,/4-C,/4-C,/-<C,/[C,A,C]3/4 | %17
[M:2/4] x4 |[M:1/4] x2 |[M:3/4] z2 z [F,B,F]- [F,B,F]/4 z/4 z/ z | x6 | %21
 z2 z [C,C]- [C,C]/4 z/4 z/ z | F,4- F,/4 z/4 z/ z | z2 z [F,A,]- [F,A,]/4 z/4 z/ z | %24
[M:27/32] [B,,B,]/4-[B,,B,]/4-[B,,B,]/4-[B,,B,]/4-[B,,B,]/4-[B,,B,]/4-[B,,B,]/4-[B,,B,]/4-[B,,B,]/4-[B,,B,]/4-[B,,B,]/4-[B,,B,]/4-[B,,B,]/4-[B,,B,]/-<[B,,B,]/ z/4 z/4 z/4 z/4 z/4 z/4 z/4 z/4 z/ | %25
 z/4 z/4 z/4 z/4 z/4 z/4 z/4 z/4 z/4 z/4 z/4 z/4 z/4 z/4 z/ [C,B,]/4-[C,B,]/4-[C,B,]/4-[C,B,]/4-[C,B,]/4-[C,B,]/4-[C,B,]/-<[C,B,]/ z/4 | %26
[M:2/4] x4 |] %27

